build/Karasa-Jaga/scalable/status/user-away-symbolic.svg

<svg height="16" width="16" xmlns="http://www.w3.org/2000/svg"><path d="m8 .875c-3.4883525 0-6.3125 2.8241475-6.3125 6.3125 0 3.488352 2.8241475 6.3125 6.3125 6.3125.6660129 0 1.3034737-.05891 1.90625-.25l3.375 2.125-1.3125-3.3125c1.410331-1.158392 2.34375-2.9074836 2.34375-4.875 0-3.4883525-2.824148-6.3125-6.3125-6.3125zm.4375 2.5625c.2313466.0066.4989269.1040339.71875.28125l2.46875 2c.219823.1772161.35071.400321.40625.625.184248.1400619.3125.3478546.3125.5625v.5625c0 .2070473-.139647.392521-.3125.53125-.0063.00509.0065.02629 0 .03125-.0011.00384-.03005-.00383-.03125 0-.06437.2116693-.196332.428934-.40625.59375l-2.5 1.96875c-.4441741.348741-1.0161437.368903-1.28125.03125l-.34375-.46875c-.2651063-.3376525-.1316741-.8700088.3125-1.21875l.875-.6875h-4.03125c-.5647221 0-1.03125-.3519592-1.03125-.78125v-.5625c0-.4292908.4665279-.78125 1.03125-.78125h4.125l-.9375-.75c-.4396463-.3544322-.5819325-.9157894-.3125-1.25l.375-.4375c.1347162-.167105.3311534-.2566.5625-.25z" fill="#bebebe" opacity=".36"/></svg>

<?xml version="1.0" encoding="UTF-8" standalone="no"?>
<!-- Created with Inkscape (http://www.inkscape.org/) -->

<svg
   xmlns:dc="http://purl.org/dc/elements/1.1/"
   xmlns:cc="http://creativecommons.org/ns#"
   xmlns:rdf="http://www.w3.org/1999/02/22-rdf-syntax-ns#"
   xmlns:svg="http://www.w3.org/2000/svg"
   xmlns="http://www.w3.org/2000/svg"
   version="1.1"
   width="16"
   height="16"
   id="svg12722">
  <defs
     id="defs12724">
    <linearGradient
       x1="15"
       y1="2"
       x2="15"
       y2="21"
       id="linearGradient3696"
       gradientUnits="userSpaceOnUse">
      <stop
         id="stop3700"
         style="stop-color:#eeeeec;stop-opacity:1"
         offset="0" />
      <stop
         id="stop3702"
         style="stop-color:#babdb6;stop-opacity:1"
         offset="0.79220003" />
      <stop
         id="stop3704"
         style="stop-color:#a1a59b;stop-opacity:1"
         offset="1" />
    </linearGradient>
    <linearGradient
       x1="22.146999"
       y1="15.722"
       x2="22.402"
       y2="34.612"
       id="linearGradient4117"
       gradientUnits="userSpaceOnUse">
      <stop
         id="stop4113"
         style="stop-color:#ffffff;stop-opacity:1"
         offset="0" />
      <stop
         id="stop4115"
         style="stop-color:#ffffff;stop-opacity:0"
         offset="1" />
    </linearGradient>
    <linearGradient
       id="linearGradient5841">
      <stop
         id="stop5843"
         style="stop-color:#37e700;stop-opacity:1"
         offset="0" />
      <stop
         id="stop5849"
         style="stop-color:#3dfe00;stop-opacity:1"
         offset="0.5" />
      <stop
         id="stop5845"
         style="stop-color:#2aad00;stop-opacity:1"
         offset="1" />
    </linearGradient>
  </defs>
  <metadata
     id="metadata12727">
    <rdf:RDF>
      <cc:Work
         rdf:about="">
        <dc:format>image/svg+xml</dc:format>
        <dc:type
           rdf:resource="http://purl.org/dc/dcmitype/StillImage" />
        <dc:title></dc:title>
      </cc:Work>
    </rdf:RDF>
  </metadata>
  <g
     id="layer1">
    <path
       d="m 8,0.875 c -3.4883525,0 -6.3125,2.8241475 -6.3125,6.3125 0,3.488352 2.8241475,6.3125 6.3125,6.3125 0.6660129,0 1.3034737,-0.05891 1.90625,-0.25 l 3.375,2.125 -1.3125,-3.3125 C 13.379081,10.904108 14.3125,9.1550164 14.3125,7.1875 14.3125,3.6991475 11.488352,0.875 8,0.875 z m 0.4375,2.5625 c 0.2313466,0.0066 0.4989269,0.1040339 0.71875,0.28125 l 2.46875,2 c 0.219823,0.1772161 0.35071,0.400321 0.40625,0.625 0.184248,0.1400619 0.3125,0.3478546 0.3125,0.5625 l 0,0.5625 c 0,0.2070473 -0.139647,0.392521 -0.3125,0.53125 -0.0063,0.00509 0.0065,0.02629 0,0.03125 -0.0011,0.00384 -0.03005,-0.00383 -0.03125,0 -0.06437,0.2116693 -0.196332,0.428934 -0.40625,0.59375 l -2.5,1.96875 C 8.6495759,10.942491 8.0776063,10.962653 7.8125,10.625 L 7.46875,10.15625 C 7.2036437,9.8185975 7.3370759,9.2862412 7.78125,8.9375 L 8.65625,8.25 4.625,8.25 C 4.0602779,8.25 3.59375,7.8980408 3.59375,7.46875 l 0,-0.5625 C 3.59375,6.4769592 4.0602779,6.125 4.625,6.125 l 4.125,0 -0.9375,-0.75 C 7.3728537,5.0205678 7.2305675,4.4592106 7.5,4.125 L 7.875,3.6875 C 8.0097162,3.520395 8.2061534,3.4309 8.4375,3.4375 z"
       id="rect11261"
       style="opacity:0.36000001;color:#bebebe;fill:#bebebe" />
  </g>
</svg>
